!!!ONB: MCCC : ILB0184_02 : Extracted Monophonic Melody
!!!COM: Beethoven, Ludwig van
!!!OPR: Piano Sonata No.23
!!!OMV: 2
!!!SCT: Op.57
!!!ODT: 1804///
**kern
*thru
*Ipiano
*staff1
*>A
*clefF4
*k[b-e-a-d-g-]
*D-:
*M2/4
*MM60
=1
4A-
4B-
=2
4.A-
8B-
=3
4A-
4A-
=4
2A-
=5
4d-
4d-
=6
4.d-
8d-
=7
4d-
4c
=8
4.d-
8r
=9
*>A
*M2/4
4A-
4B-
=10
4.A-
8B-
=11
4A-
4A-
=12
2A-
=13
4d-
4d-
=14
4.d-
8d-
=15
4d-
4c
=16
4.d-
8r
=17
*>B
4A-
8..A-
32A-
=18
8.A-
16d-
8c
8d-
=19
4A-
8..A-
32A-
=20
8.A-
16f
16f
16e-
8d-
=21
4A-
8..A-
32A-
=22
8.a-
16a-
16a-
16g-
8f
=23
4e-
4A-
=24
4.d-
8r
=25
*>B
4A-
8..A-
32A-
=26
8.A-
16d-
8c
8d-
=27
4A-
8..A-
32A-
=28
8.A-
16f
16f
16e-
8d-
=29
4A-
8..A-
32A-
=30
8.a-
16a-
16a-
16g-
8f
=31
4e-
4A-
=32
4.d-
8r
=33
*>C
8A-
8r
8B-
8r
=34
*>D
8A-
8r
8B-
8r
=35
8A-
8r
8A-
8r
=36
16G-
16r
16F
16r
16E-
16r
16D-
16r
=37
8d-
8r
8d-
8r
=38
8d-
8r
8d-
8r
=39
8d-
8r
8c
8r
=40
*>D1
16d-
16r
16A-
16r
16F
16r
16E-
16r
=41
8A-
8r
8B-
8r
=42
*>D
8A-
8r
8B-
8r
=43
8A-
8r
8A-
8r
=44
16G-
16r
16F
16r
16E-
16r
16D-
16r
=45
8d-
8r
8d-
8r
=46
8d-
8r
8d-
8r
=47
8d-
8r
8c
8r
=48
*>D2
16d-
16r
16A-
16r
16F
16r
16D-
16r
=49
*>E
8A-
8r
8A-
8r
=50
8A-
16F
16r
16G-
16r
16A-
16r
=51
8A-
8r
8c
8r
=52
8d-
16A-
16r
16c
16r
16d-
16r
=53
8A-
8r
8e-
8r
=54
8f
16f
16r
16g-
16r
16a-
16r
=55
8b-
8r
8A-
8r
=56
*>E1
16G-
16r
16F
16r
16E-
16r
16D-
16r
=57
*>E
8A-
8r
8A-
8r
=58
8A-
16F
16r
16G-
16r
16A-
16r
=59
8A-
8r
8c
8r
=60
8d-
16A-
16r
16c
16r
16d-
16r
=61
8A-
8r
8e-
8r
=62
8f
16f
16r
16g-
16r
16a-
16r
=63
8b-
8r
8A-
8r
=64
*>E2
16F
16r
16E-
16r
16D-
16r
8r
=65
*>F
16a-
16f
16d-
16a-
16d-
16b-
16g-
16d-
=66
16a-
16f
16d-
16a-
16d-
16a-
16e-
16b-
=67
16a-
16e-
16d-
16a-
16c
16a-
16e-
16c
=68
16a-
16f
16d-
16a-
16f
16dd-
16a-
16f
=69
16dd-
16a-
16f
16dd-
16g-
16dd-
16b-
16g-
=70
16dd-
16a-
16f
16dd-
16f
16dd-
16g
16dd-
=71
16e-
16dd-
16g-
16e-
16cc
16g-
16e-
16cc
=72
*>F1
16dd-
16a-
16f
16dd-
16a-
16f
16d-
16a-
=73
*>F
16a-
16f
16d-
16a-
16d-
16b-
16g-
16d-
=74
16a-
16f
16d-
16a-
16d-
16a-
16e-
16b-
=75
16a-
16e-
16d-
16a-
16c
16a-
16e-
16c
=76
16a-
16f
16d-
16a-
16f
16dd-
16a-
16f
=77
16dd-
16a-
16f
16dd-
16g-
16dd-
16b-
16g-
=78
16dd-
16a-
16f
16dd-
16f
16dd-
16g
16dd-
=79
16e-
16dd-
16g-
16e-
16cc
16g-
16e-
16cc
=80
*>F2
16dd-
16a-
16f
16dd-
16a-
16f
16d-
16a-
=81
*>G
16a-
16e-
16c
16a-
16c
16a-
16g-
16c
=82
16d-
16f
16a-
16dd-
16cc
16g-
16dd-
16f
=83
16a-
16e-
16c
16a-
16c
16a-
16g-
16c
=84
16d-
16f
16a-
16ff
16ee-
16g-
16dd-
16f
=85
16a-
16e-
16c
16a-
16c
16a-
16g-
16c
=86
16r
16aa-
16a-
16aa-
16gg-
16a-
16ff
16a-
=87
16ee-
16b-
16g-
16ee-
16a-
16g-
16e-
16a-
=88
*>G1
16f
16dd-
16a-
16f
16d-
16r
8r
=89
*>G
16a-
16e-
16c
16a-
16c
16a-
16g-
16c
=90
16d-
16f
16a-
16dd-
16cc
16g-
16dd-
16f
=91
16a-
16e-
16c
16a-
16c
16a-
16g-
16c
=92
16d-
16f
16a-
16ff
16ee-
16g-
16dd-
16f
=93
16a-
16e-
16c
16a-
16c
16a-
16g-
16c
=94
16r
16aa-
16a-
16aa-
16gg-
16a-
16ff
16a-
=95
16ee-
16b-
16g-
16ee-
16a-
16g-
16e-
16a-
=96
*>G2
16f
16dd-
16a-
16f
16d-
16r
8r
=97
*>H
8r
4aa-
[8bb-
=98
8bb-]
4aa-
8bb-
=99
8aa-
8aa-
8aa-
8aa-
=100
8aa-
8r
4r
=101
8r
4ddd-
[8ddd-
=102
8ddd-]
4ddd-
8ddd-
=103
8ddd-
8ddd-
8ccc
8ccc
=104
32ddd-
32eee-
32fff
32ccc
32ddd-
32aa-
32bb-
32gg-
32ff
32aa-
32gg-
32ee-
32dd-
32ff
32ee-
32cc
=105
32dd-
32ee-
32dd-
32cc
32dd-
32aa-
32gg
32aa-
32dd-
32ee-
32dd-
32cc
32dd-
32bb-
32aa
32bb-
=106
32dd-
32ee-
32dd-
32cc
32dd-
32aa-
32gg
32aa-
32dd-
32aa-
32gg
32aa-
32dd-
32bb-
32aa
32bb-
=107
32dd-
32aa-
32gg
32aa-
32dd-
32aa-
32gg
32aa-
32cc
32aa-
32gg
32aa-
32cc
32aa-
32gg
32aa-
=108
32aa-
32gg-
32ff
32ee-
32dd-
32ee-
32ff
32gg-
32aa-
32gg-
32ff
32gg-
32aa-
32bb-
32ccc
32ddd-
=109
32ff
32gg-
32ff
32ee
32ff
32ddd-
32ccc
32ddd-
32gg-
32aa-
32gg-
32ff
32gg-
32ddd-
32ccc
32ddd-
=110
32ff
32gg-
32ff
32ee
32ff
32ddd-
32ccc
32ddd-
32ff
32ddd-
32ccc
32ddd-
32gg
32ddd-
32ccc
32ddd-
=111
32gg-
32ddd-
32ccc
32ddd-
32gg-
32ddd-
32ccc
32ddd-
32gg-
32ccc
32bb-
32ccc
32gg-
32ccc
32bb-
32ccc
=112
8ddd-
8r
4r
=113
8r
4aa-
8aa-
=114
8aa-
8aa-
8aa-
8aa-
=115
8r
4aa-
8aa-
=116
8aa-
8aa-
8aa-
8aa-
=117
8r
8ccc
8bb
8ccc
=118
8ddd-
8fff
8eee-
8ddd-
=119
4ggg-
4aa-
=120
32aa-
32bb-
32aa-
32gg-
32ff
32gg-
32aa-
32bb-
32ccc
32ddd-
32aa-
32gg-
32ff
32aa-
32ff
32dd-
=121
32cc
32aa-
32bb-
32aa-
32ccc
32aa-
32bb-
32aa-
32eee-
32aa-
32bb-
32aa-
32ccc
32aa-
32bb-
32aa-
=122
32ddd-
32aa-
32bb-
32aa-
32ddd-
32aa-
32bb-
32aa-
32gg-
32aa-
32bb-
32aa-
32ff
32aa-
32bb-
32aa-
=123
32cc
32aa-
32bb-
32aa-
32ccc
32aa-
32bb-
32aa-
32eee-
32aa-
32bb-
32aa-
32bb-
32aa-
32bb-
32aa-
=124
32bb-
32aa-
32bb-
32aa-
32ddd-
32aa-
32bb-
32aa-
32eee-
32aa-
32bb-
32aa-
32fff
32aa-
32bb-
32aa-
=125
*8va
32eee-
32ccc
32ddd-
32ccc
32eee-
32ccc
32ddd-
32ccc
32aaa-
32ccc
32ddd-
32ccc
32aaa-
32ccc
32ddd-
32ccc
=126
32aaa-
32ccc
32ddd-
32ccc
32aaa-
32ddd-
32eee-
32ddd-
32aaa-
32eee-
32fff
32eee-
32aaa-
32fff
32ggg-
32fff
=127
32bbb-
32ggg-
32bbb-
32aaa-
32ggg-
32fff
32eee-
32ddd-
*X8va
32ccc
32bb-
32aa-
32gg-
32ff
32ee-
32dd-
32cc
=128
32dd-
32b-
32a-
32g-
32f
32e-
32d-
32c
32B-
32A-
32G-
32F
32E-
32D-
16r
=129
4A-
4B-
=130
4.A-
8b-
=131
4a-
4a-
=132
8a-
8r
4r
=133
4d-
4d-
=134
4.d-
8dd-
=135
4dd-
4cc
=136
8dd-
8r
4r
=137
4A-
8..A-
32A-
=138
8.A-
16dd-
8cc
8dd-
=139
4A-
8..A-
32A-
=140
8.A-
16ff
16ff
16ee-
8dd-
=141
4A-
8..A-
32A-
=142
8.aa-
16aa-
16aa-
16gg-
8ff
=143
4ee-
4a-
=144
2dd-
=145
2ddd-
==
*-
